X:201
%%etbk:tnset id:64,pos:1,rep:3x,ant:
%%etbk:wsite http://www.thesession.org/tunes/display/72
%%etbk:pldat 2016-06-23T19:08,2016-06-22T16:14,2016-06-21T16:14,2016-06-20T18:45,2016-06-16T19:17,2016-03-05T15:06,2016-02-26T17:34,2016-02-22T18:48,2015-06-26T17:42,2015-06-23T18:36,2015-06-16T17:15,2014-08-21T19:11,2014-08-18T18:39,2014-06-23T18:45,2014-05-28T16:50
T: Merry Blacksmith, The
Z: Piano Box Version by Martin Fleischmann
H: Created 2013-02-19 /  Last Modified 2014-05-28
M: 4/4
L: 1/8
R: reel
K: Dmaj
|: "D"!4!d3!1!A !2!B!1!A!2!F!1!A | !1!AB!4!dA !2!B!1!A!2!F!1!A | !1!A!2!B!3!d!4!e !5!fde!3!d | "A"!1!B!2!ee!1!d !2!e!4!gf!2!e |
"D"!1!!4!d3!1!A {d}!2!B!1!A!2!F!1!A | !1!AB!4!dA !2!B!1!A!2!F!1!A | !1!A!2!B!3!d!4!e !5!f2!4!e!2!c | "A"!3!d!2!B!1!A!2!F "D"!1!D4 :|
|: "D"!5!a3g !3!f!2!f!3!fe | !1!d2!4!d!1!A !2!B!1!A!2!F!1!A | !1!A!2!B!3!d!4!e !5!fde!3!d | "A"!1!B!2!ee!1!d !2!e!4!gf!2!e |
"D"!5!a3g !3!f{g}ffe | !1!d2!4!d!1!A !2!B!1!A!2!F!1!A |  !1!A!2!B!3!d!4!e !5!f2!4!e!2!c | "A"!3!d!2!B!1!A!2!F "D"!1!D4:|


